build/img/info.svg

<svg width="125" height="132" viewBox="0 0 125 132" fill="none" xmlns="http://www.w3.org/2000/svg">
<g opacity="0.05">
<path d="M136.568 23.4316C121.458 8.32156 101.369 0 80 0C58.6313 0 38.5416 8.32188 23.4316 23.4316C8.32156 38.5413 0 58.6313 0 80C0 101.369 8.32156 121.458 23.4316 136.568C38.5413 151.678 58.6313 160 80 160C101.369 160 121.458 151.678 136.568 136.568C151.678 121.458 160 101.369 160 80C160 58.6313 151.678 38.5413 136.568 23.4316ZM80 147.074C43.0156 147.074 12.9262 116.984 12.9262 80C12.9262 43.0156 43.0156 12.9262 80 12.9262C116.984 12.9262 147.074 43.0156 147.074 80C147.074 116.984 116.984 147.074 80 147.074Z" fill="#2C8ECC"/>
<path d="M79.9944 73.5371C76.425 73.5371 73.5312 76.4309 73.5312 80.0002V109.415C73.5312 112.985 76.425 115.878 79.9944 115.878C83.5641 115.878 86.4575 112.985 86.4575 109.415V80.0002C86.4575 76.4309 83.5641 73.5371 79.9944 73.5371Z" fill="#2C8ECC"/>
<path d="M84.565 46.0142C83.3612 44.8105 81.6953 44.1211 79.9947 44.1211C78.2941 44.1211 76.6281 44.8105 75.4244 46.0142C74.2206 47.2177 73.5313 48.8839 73.5313 50.5845C73.5313 52.2852 74.2206 53.9511 75.4244 55.1548C76.6281 56.3583 78.2941 57.048 79.9947 57.048C81.6953 57.048 83.3612 56.3586 84.565 55.1548C85.7687 53.9511 86.4581 52.2852 86.4581 50.5845C86.4578 48.8839 85.7681 47.218 84.565 46.0142Z" fill="#2C8ECC"/>
</g>
</svg>

<svg width="125" height="132" fill="none" xmlns="http://www.w3.org/2000/svg"><g opacity=".05" fill="#2C8ECC"><path d="M136.568 23.432C121.458 8.322 101.369 0 80 0S38.542 8.322 23.432 23.432 0 58.632 0 80c0 21.369 8.322 41.458 23.432 56.568S58.632 160 80 160c21.369 0 41.458-8.322 56.568-23.432S160 101.369 160 80s-8.322-41.459-23.432-56.568zM80 147.074c-36.984 0-67.074-30.09-67.074-67.074 0-36.984 30.09-67.074 67.074-67.074 36.984 0 67.074 30.09 67.074 67.074 0 36.984-30.09 67.074-67.074 67.074z"/><path d="M79.994 73.537A6.463 6.463 0 0073.531 80v29.415a6.463 6.463 0 1012.926 0V80a6.463 6.463 0 00-6.463-6.463zm4.571-27.523a6.508 6.508 0 00-4.57-1.893c-1.7 0-3.367.69-4.57 1.893a6.507 6.507 0 00-1.894 4.57c0 1.701.69 3.367 1.893 4.57a6.51 6.51 0 004.57 1.894c1.701 0 3.367-.69 4.571-1.893a6.508 6.508 0 001.893-4.57c0-1.701-.69-3.367-1.893-4.57z"/></g></svg>
